!!!COM: Bach, Johann Sebastian
!!!CDT: 1685///-1750///
!!!CNT@EN: German
!!!OPR@DE: Musikalisches, BWV 1007
!!!OPR@EN: Musical Offering, BWV 1007
!!!OMD: Allegro
!!!OMV: No. 13
!!!ODT: 1747///
!!!SCT: BWV 1079
!!!SCA: Thematisch-systematisches Verzeichnis der musikalischen Werke Johann Sebastian Bach: Bach-Werke-Verzeichnis (Schmieder)
**kern	**kern	**kern
*staff3	*staff2	*staff1
*Icemba	*Ivioln	*Iflt_a
*>[A,B,C,B,F]	*>[A,B,C,B,F]	*>[A,B,C,B,F]
*>A	*>A	*>A
*clefF4	*clefG2	*clefG2
*k[b-e-a-]	*k[b-e-a-]	*k[b-e-a-]
*M2/4	*M2/4	*M2/4
*MM96	*MM96	*MM96
8r	8g/	8r
=1	=1	=1
8r	(8.cc\L	2r
8C/L	.	.
.	32dd\LL	.
.	32ee-\JJJ)	.
8BBn/	(8.dd\L	.
8GG/J	.	.
.	32ee-\LL	.
.	32ff\JJJ)	.
=2	=2	=2
8C/L	(16ee-\LL	2r
.	16dd\	.
8D/	16cc\	.
.	16bn\JJ)	.
8E-/	16cc\LL	.
.	16gg\	.
8C/J	16ee-\	.
.	16cc\JJ	.
=3	=3	=3
8G\L	16bn\LL	2r
.	16g\	.
8F\	16b\	.
.	16dd\JJ	.
8E-\	(16cc\LL	.
.	16b\	.
8C\J	16cc\)	.
.	16ee-\JJ	.
=4	=4	=4
8G\L	(16dd\LL	2r
.	16cc\	.
8GG\J	16bn\	.
.	16an\JJ)	.
8r	16g\LL	.
.	(16dd\	.
8G\	16ee-\)	.
.	16bn\JJ	.
=5	=5	=5
8A-\L	(16cc\LL	2r
.	16bn\	.
8G\	16cc\)	.
.	16aa-'\JJ	.
8F\	(16aa-\LL	.
.	16gg\	.
8D\J	16aa-\)	.
.	16b-'\JJ	.
=6	=6	=6
8G\L	(16b-\LL	2r
.	16an\	.
8F\	16b-\)	.
.	16gg'\JJ	.
8En\	(16gg\LL	.
.	16ff#\	.
8C\J	16gg\)	.
.	16a-'\JJ	.
=7	=7	=7
8F\L	(16a-\LL	2r
.	16g\	.
8E-\	16a-\)	.
.	16ffn'\JJ	.
8D\	(16ff\LL	.
.	16een\	.
8C\J	16ff\)	.
.	16a-'\JJ	.
=8	=8	=8
16BBn/LL	(8a-/L	2r
16GG/	.	.
16BB/	8g/J)	.
16D/JJ	.	.
(16G\LL	8r	.
16E-\)	.	.
(16F\	8g/	.
16D\JJ)	.	.
=9	=9	=9
8E-\L	(8.gg\L	2r
8A-\	.	.
.	32ff\LL	.
.	32ee-\JJJ)	.
8D\	(8.ff\L	.
8G\J	.	.
.	32ee-\LL	.
.	32dd\JJJ)	.
=10	=10	=10
8C/L	(16ee-\LL	4r
.	16ff\	.
8D/	16gg\)	.
.	(16ee-'\JJ	.
8E-/	16cc\LL	8r
.	16dd\	.
8AAn/J	16ee-\)	8cc\
.	16cc'\JJ	.
=11	=11	=11
8BB-/L	8dd\	(8.gg\L
8E-/	4g/	.
.	.	32aan\LL
.	.	(32bb-\JJJ)
8C/	.	8.aa\L
8D/J	8f#/	.
.	.	32bb-\LL
.	.	32ccc\JJJ)
=12	=12	=12
*>B	*>B	*>B
8GG/L	8g/L	(16bb-\LL
.	.	16aan\
8AAn/	8d/J	16gg\
.	.	16ff#\JJ)
8BB-/	[4dd\	16gg\LL
.	.	16ddd\
8GG/J	.	16bb-\
.	.	16gg\JJ
=13	=13	=13
8D/L	8dd/L]	16ff#\LL
.	.	16dd\
8C/	8d/J	16ff#\
.	.	16aan\JJ
8BB-/	[4dd\	(16gg\LL
.	.	16ff#\
8GG/J	.	16gg\)
.	.	16bb-\JJ
=14	=14	=14
8D/L	8dd\L]	(16aan\LL
.	.	16gg\
8DD/J	8aan\	16ff#\
.	.	16een\JJ)
8r	8ff#\	16dd\LL
.	.	(16aa\
8D\	[8dd\J	16bb-\)
.	.	16ff#\JJ
=15	=15	=15
(16E-\LL	8dd\L]	(16gg\LL
16D\J)	.	16ff#\
8E-\J	8g\J	16gg\)
.	.	16eee-'\JJ
8r	(16cc\LL	(16eee-\LL
.	16b-\J)	16ddd\
8AAn/	[8cc\J	16eee-\)
.	.	16ffn'\JJ
=16	=16	=16
(16D/LL	8cc/L]	(16ff\LL
16C/J)	.	16een\
8D/J	8f/J	16ff\)
.	.	16ddd'\JJ
8r	(16b-/LL	(16ddd\LL
.	16an/J)	16ccc\
8GG/	[8b-/J	16ddd\)
.	.	16ee-'\JJ
=17	=17	=17
(16C/LL	8b-/L]	(16ee-\LL
16BB-/J)	.	16dd\
8C/J	8g/	16ee-\)
.	.	16ccc'\JJ
8r	8e-/	(16ccc\LL
.	.	16bbn\
8c\	8a-/J	16ccc\)
.	.	16ee-'\JJ
=18	=18	=18
8c\L	16f#/LL	(8ee-\L
.	16d/	.
8An\	16f#/	8dd\J)
.	16an/JJ	.
8F#\	16cc\LL	8r
.	16ff#\	.
8D\J	16aan\	8dd\
.	16cc\JJ	.
=19	=19	=19
8G\L	16b-\LL	(8.ddd\L
.	16dd\JJ	.
8BB-\	4gg\	.
.	.	32ccc\LL
.	.	32bb-\JJJ)
8AAn\	.	(8.ccc\L
8D\J	8ff#\	.
.	.	32bb-\LL
.	.	32aan\JJJ)
=20	=20	=20
8G\L	8gg\L	(16bb-\LL
.	.	16ccc\
8Fn\	8g\J	16ddd\)
.	.	16bb-'\JJ
8E-\	[4gg\	(16gg\LL
.	.	16aan\
8D\J	.	16bb-\)
.	.	16gg'\JJ
=21	=21	=21
(8.C\L	8gg\L]	(16aa-\LL
.	.	16gg\
.	16ff\L	16aa-\)
32D\LL	16ee-\JJ	16cc'\JJ
32E-\JJJ)	.	.
(8.D\L	[4ff\	(16b-\LL
.	.	16an\
.	.	16b-\)
32E-\LL	.	16aa-'\JJ
32F\JJJ)	.	.
=22	=22	=22
8E-/L	8ff\L]	(16gg\LL
.	.	16aa-\
8D/	16g\L	16bb-\)
.	16b-\JJ	16gg'\JJ
8C/	[4ee-\	(16ee-\LL
.	.	16ff\
8BB-/J	.	16gg\)
.	.	16ee-'\JJ
=23	=23	=23
(8.AAn/L	8ee-\L]	(16ff\LL
.	.	16ee-\
.	16dd\L	16ff\)
32BBn/LL	16cc\JJ	16a-'\JJ
32C/JJJ)	.	.
(8.BB/L	[4dd\	(16g\LL
.	.	16f#\
.	.	16g\)
32C/LL	.	16ffn'\JJ
32D/JJJ)	.	.
=24	=24	=24
8C\L	8dd/L]	(16ee-\LL
.	.	16ff\
16c\L	16e-/L	16gg\)
16B-\JJ	16g/JJ	16ee-'\JJ
8A-\L	(16cc\LL	8cc\L
.	16dd\	.
8G\J	16ee-\	[8ccc\J
.	16cc\JJ)	.
=25	=25	=25
(8.F\L	(16dd-/LL	8ccc\L]
.	16cc/	.
.	16dd-/)	16bb-\L
32G\LL	16f'/JJ	16aa-\JJ
32A-\JJJ)	.	.
(8.G\L	(16e-/LL	[4bb-\
.	16dn/	.
.	16e-/)	.
32A-\LL	16dd-'/JJ	.
32B-\JJJ)	.	.
=26	=26	=26
8A-\L	(16cc\LL	8bb-\L]
.	16dd-\	.
8G\	16ee-\)	16cc\L
.	16cc'\JJ	16ee-\JJ
8F\	(16a-/LL	[4aa-\
.	16b-/	.
8E-\J	16cc/)	.
.	16a-'/JJ	.
=27	=27	=27
(8.D\L	(16b-/LL	8aa-\L]
.	16a-/	.
.	16b-/)	16gg\L
32En\LL	16d-'/JJ	16ff\JJ
32F\JJJ)	.	.
(8.E\L	(16c/LL	[4gg\
.	16Bn/	.
.	16c/)	.
32F\LL	16b-'/JJ	.
32G\JJJ)	.	.
=28	=28	=28
(16F\LL	(16a-/LL	8gg\L]
16G\	16b-/	.
16A-\	16cc/)	16a-\L
16F\JJ)	16a-'/JJ	16cc\JJ
(16D\LL	8f\L	[4ff\
16E-\	.	.
16F\	8aa-\J	.
16D\JJ)	.	.
=29	=29	=29
(16BBn/LL	4.gg\	8ff\L]
16C/	.	.
16D/	.	16ee-\L
16BB/JJ)	.	16dd\JJ
(16C/LL	.	[4ee-\
16D/	.	.
16E-/	8cc\	.
16C/JJ)	.	.
=30	=30	=30
(16D\LL	[4ff\	8ee-\L]
16E-\	.	.
16F\	.	(16aa-\L
16D\JJ)	.	16ff\JJ)
(16G\LL	(16ff\LL]	(8ee-\L
16An\	16ee-\	.
16Bn\	16dd\	[8dd\J)
16G\JJ)	16ff\JJ)	.
=31	=31	=31
(16c\LL	(16ee-\LL	8dd\L]
16d\	16ff\	.
16e-\	16gg\	8cc\J
16c\JJ)	16ee-\JJ)	.
(16A-\LL	8cc\L	8r
16B-\	.	.
16c\	([8cc\J	([8ee-\
16A-\JJ)	.	.
=32	=32	=32
8F#/L	16cc\LL]	16ee-\LL]
.	16bn\	16dd\
(8FF#/	16cc\)	16ee-\)
.	16ee-'\JJ	16ccc'\JJ
8FF#/	(16cc\LL	(16ee-\LL
.	16b\	16dd\
8FF#/J)	16cc\)	16ee-\)
.	16ee-'\JJ	16ccc'\JJ
=33	=33	=33
8GG\L	(8cc\L	8ee-\L
16G\L	8bn\J)	8dd\J
16An\JJ	.	.
8Bn\L	4r	8r
8G\J	.	8dd\
=34	=34	=34
8c\L	4r	(16ee-\LL
.	.	16gg\)
8B-\	.	(16ddd\
.	.	16ccc\JJ)
8An\	(16c/LL	(8.ee-\L
.	16f/	.
8F\J	16b-/	.
.	16an/JJ)	32dd\LL
.	.	32cc\JJJ)
=35	=35	=35
8B-\L	4r	(16dd\LL
.	.	16ff\)
8An\J	.	(16ccc\
.	.	16bb-\JJ)
8G\L	(16B-/LL	(8.dd\L
.	16d/	.
16F#\L	16an/	.
16G\JJ	16g/JJ)	32cc\LL
.	.	32b-\JJJ)
=36	=36	=36
8An\L	4r	(16cc\LL
.	.	16ee-\)
8G\	.	(16bb-\
.	.	16aan\JJ)
8F#\	(16An/LL	(8.cc\L
.	16d/	.
8D\J	16g/	.
.	16f#/JJ)	32b-\LL
.	.	32an\JJJ)
=37	=37	=37
8G\L	4G/	(16b-\LL
.	.	16dd\)
8Fn\	.	(16aan\
.	.	16gg\JJ)
8E-\	16r	(8.b-/L
.	(16g/LL	.
8D\J	16an/	.
.	16b-/JJ)	32an/LL
.	.	32g/JJJ)
=38	=38	=38
8E-\L	(16c/LL	[2gg\
.	16e-/)	.
8C\	(16b-/	.
.	16an/JJ)	.
8F\	(16d/LL	.
.	16f/)	.
8D\J	(16cc/	.
.	16bn/JJ)	.
=39	=39	=39
8E-\L	(16cc\LL	2gg\_
.	16dd\	.
8G\	16ee-\)	.
.	16cc'\JJ	.
8E-\	(16g/LL	.
.	16an/	.
8D\J	16b-/)	.
.	16g'/JJ	.
=40	=40	=40
8C#/L	(16en/LL	2gg\_
.	16g/)	.
8D/	(16b-/	.
.	16an/JJ)	.
8En/	(16g/LL	.
.	16b-/)	.
8AAn/J	(16dd/	.
.	16cc#/JJ)	.
=41	=41	=41
8D/L	(8dd\	(16gg\LL]
.	.	16ff#\)
8DD/J	4cccn\)	(16aan\
.	.	16gg\JJ)
8r	.	16ff#'\LL
.	.	(16ee-\
8F#\	[8dd\	16dd\
.	.	16cc\JJ)
=42	=42	=42
8G\L	16dd\LL]	(16b-\LL
.	16bb-\J	16dd\)
8E-\	[8cc\J	(16ff#\
.	.	16gg\JJ)
8Fn\	16cc\LL]	(16an\LL
.	16aan\J	16cc\)
8D\J	[8b-\J	(16een\
.	.	16ffn\JJ)
=43	=43	=43
8E-/L	16b-\LL]	(16g\LL
.	16gg\J	16b-\)
8C/	[8an\J	(16dd\
.	.	16ee-\JJ)
8AAn/	8a\L]	16f#\LL
.	.	(16ee-\
8DD/J	8ff#\J	16dd\
.	.	16cc\JJ)
=44	=44	=44
8EE-/L	8.gg\L	16b-\LL
.	.	16gg\
8C/	.	16ee-\
.	16aan\Jk	16cc\JJ
8D/	8.ff#\L	8b-/L
8DD/J	.	16an/L
.	16gg\Jk	16g/JJ
=45	=45	=45
4GG/	4gg\	16g/LL
.	.	16d/
.	.	16g/
.	.	16an/JJ
4r	8r	16b-/LL
.	.	16g/
.	8d/	16b-/
.	.	16cc/JJ
=46	=46	=46
8r	(8.g/L	[2dd\
8G\L	.	.
.	32an/LL	.
.	32b-/JJJ)	.
8F#\	(8.a/L	.
8D\J	.	.
.	32b-/LL	.
.	32cc/JJJ)	.
=47	=47	=47
4GG/	(16b-/LL	(16dd\LL]
.	16an/	16cc\
.	16g/	16b-\
.	16f#/JJ)	16an\JJ)
4BB-/	16g/LL	8g/
.	16dd/	.
.	16b-/	8r
.	16g/JJ	.
=48	=48	=48
4D\	16f#/LL	8r
.	16d/	.
.	16f#/	4ddd\
.	16an/JJ	.
4E-\	(16g/LL	.
.	16f#/	.
.	16g/)	8ccc#\
.	16b-'/JJ	.
=49	=49	=49
4FF#/	(16an/LL	8ddd\L
.	16g/	.
.	16f#/	8aan\J
.	16en/JJ)	.
8r	16d/LL	[4bb-\
.	(16a/	.
8D\	16b-/	.
.	16f#/JJ)	.
=50	=50	=50
4C#/	(16g/LL	(8bb-\L]
.	16f#/	.
.	16g/)	8aan\J)
.	16ee-'/JJ	.
4Cn/	(16ee-/LL	8r
.	16dd/	.
.	16ee-/)	[8aa-\
.	16fn'/JJ	.
=51	=51	=51
4BBn/	(16f/LL	(8aa-\L]
.	16en/	.
.	16f/)	8gg\J)
.	16dd'/JJ	.
[4BB-/	(16dd/LL	8r
.	16cc#/	.
.	16dd/)	[8gg\
.	16e-'/JJ	.
=52	=52	=52
8BB-/L]	(16e-/LL	(8gg\L]
.	16d/	.
8AAn/	16e-/)	8ff#\J)
.	16ccn'/JJ	.
8AA-/	(16cc/LL	16r
.	16bn/	(16dd\LL
8GG/J	16cc/)	16ee-\
.	16e-'/JJ	16gg\JJ)
=53	=53	=53
8FF#/L	(8e-/L	(16ccc\LL
.	.	16aan\
16EEn/L	8d/J)	16ff#\)
16DD/JJ	.	16ccc\JJ
8GG/L	8r	(16bb-\LL
.	.	16gg\)
8C/J	8d/	(16aa\
.	.	16ff#\JJ)
=54	=54	=54
8BB-/L	(8.dd\L	16gg\LL
.	.	16dd\JJ
8E-/	.	4gg\
.	32cc'\LL	.
.	32b-\JJJ)	.
8AAn/	(8.cc\L	.
8D/J	.	8ff#\
.	32b-\LL	.
.	32an\JJJ)	.
=55	=55	=55
8GG/L	(16b-\LL	4gg\
.	16cc\	.
8AAn/	16dd\)	.
.	16b-'\JJ	.
8BB-/	(16g/LL	8r
.	16an/	.
8GG/J	16b-/)	[8g/
.	16g'/JJ	.
=56	=56	=56
8C/L	(16a-\LL	8g/L]
.	16g\	.
8F/	16a-\)	8f/J
.	16ff'\JJ	.
8D/	(16ff\LL	8r
.	16ee-\	.
8BB-/J	16ff\)	[8b-\
.	16a-'\JJ	.
=57	=57	=57
8E-\L	(8a-/L	(16b-\LL]
.	.	16a-\
8G\	8g/J)	16b-\)
.	.	16gg'\JJ
8En\	8r	(16gg\LL
.	.	16ff\
8C\J	[8cc\	16gg\)
.	.	16b-'\JJ
=58	=58	=58
8F\L	(16cc\LL]	(8b-/L
.	16bn\	.
8A-\	16cc\)	8a-/J)
.	16aa-'\JJ	.
8F\	(16aa-\LL	8r
.	16gg\	.
8D\J	16aa-\)	[8ff\
.	16cc'\JJ	.
=59	=59	=59
8G\L	(8cc/L	(16ff\LL]
.	.	16ee-\
8An\	8bn/J)	16ff\)
.	.	16ddd'\JJ
8Bn\	8r	(16ddd\LL
.	.	16ccc\
8G\J	[8dd\	16ddd\)
.	.	16ff'\JJ
=60	=60	=60
8c\L	8dd\L]	(16ee-\LL
.	.	16dd\
8B-\	8cc\J	16ee-\)
.	.	16ccc'\JJ
8A-\	8r	(16ccc\LL
.	.	16bbn\
8G\J	[8cc\	16ccc\)
.	.	16ee-'\JJ
=61	=61	=61
(8.F\L	8cc\L]	(16dd-\LL
.	.	16cc\
.	8b-\J	16dd-\)
32G\LL	.	16bb-'\JJ
32A-\JJJ)	.	.
(8.G\L	8r	(16bb-\LL
.	.	16aa-\
.	([8ee-\	16bb-\)
32A-\LL	.	16dd-'\JJ
32B-\JJJ)	.	.
=62	=62	=62
8A-\L	8ee-\L]	(16cc\LL
.	.	16b-\
8G\	8een\	16cc\)
.	.	16aa-'\JJ
8F\	8ff\)	(16aa-\LL
.	.	16gg\
8E-\J	[8a-\J	16aa-\)
.	.	16cc'\JJ
=63	=63	=63
(8.D\L	8a-/L]	(16b-\LL
.	.	16a-\
.	8g/J	16b-\)
32En\LL	.	16gg'\JJ
32F\JJJ)	.	.
(8.E\L	8r	(16gg\LL
.	.	16ff\
.	([8cc\	16gg\)
32F\LL	.	16b-'\JJ
32G\JJJ)	.	.
=64	=64	=64
8F\L	16cc\LL]	(8b-/L
.	16b-\	.
8E-\	16cc\)	8a-/J)
.	16ff'\JJ	.
8D\	(16ff\LL	8r
.	16een\	.
8C\J	16ff\)	[8ff\
.	16a-'\JJ	.
=65	=65	=65
(8.BB-/L	(16g\LL	8ff\L]
.	16f\	.
.	16g\)	8ee-\J
32C/LL	16ee-'\JJ	.
32D/JJJ)	.	.
(8.C/L	(16ee-\LL	8r
.	16dd\	.
.	16ee-\)	[8ee-\
32D/LL	16g'\JJ	.
32E-/JJJ)	.	.
=66	=66	=66
(8.AAn/L	(16f/LL	8ee-\L]
.	16e-/	.
.	16f/)	8dd\J
32BBn/LL	16dd'/JJ	.
32C/JJJ)	.	.
(8.BB/L	(16dd/LL	8r
.	16cc/	.
.	16dd/)	8g/
32C/LL	16f'/JJ	.
32D/JJJ)	.	.
=67	=67	=67
8C/L	16e-/LL	(8.cc\L
.	16g/JJ	.
8AA-/	4cc\	.
.	.	32dd\LL
.	.	32ee-\JJJ)
8FF/	.	(8.dd\L
8GG/J	8bn\	.
.	.	32ee-\LL
.	.	32ff\JJJ)
=68	=68	=68
4C/	4cc\	(16ee-\LL
.	.	16dd\
.	.	16cc\
.	.	16bn\JJ)
4E-\	4r	16cc\LL
.	.	16gg\
.	.	16ee-\
.	.	16cc\JJ
=69	=69	=69
4G\	8r	16bn\LL
.	.	16g\
.	4gg\	16b\
.	.	16dd\JJ
4A-\	.	(16cc\LL
.	.	16b\
.	8ff#\	16cc\)
.	.	16ee-'\JJ
=70	=70	=70
4BBn/	8gg\L	(16dd\LL
.	.	16cc\
.	8dd\J	16bn\
.	.	16an\JJ)
8r	[4ee-\	16g\LL
.	.	(16dd\
8G\	.	16ee-\
.	.	16bn\JJ)
=71	=71	=71
4F#\	8ee-\L]	(16cc\LL
.	.	16bn\
.	8dd\J	16cc\)
.	.	16aa-'\JJ
4Fn\	8r	(16aa-\LL
.	.	16gg\
.	[8dd-\	16aa-\)
.	.	16b-'\JJ
=72	=72	=72
4En\	8dd-\L]	(16b-\LL
.	.	16an\
.	8cc\J	16b-\)
.	.	16gg'\JJ
4E-\	8r	(16gg\LL
.	.	16ff\
.	[8cc\	16gg\)
.	.	16a-'\JJ
=73	=73	=73
8r	8cc\L]	(16a-\LL
.	.	16g\
8D/L	8bn\J	16a-\)
.	.	16ff'\JJ
8D-/	16r	(16ff\LL
.	(16g/LL	16een\
8C/J	16a-/)	16ff\)
.	16cc/JJ	16a-'\JJ
=74	=74	=74
8BBn/L	(16ff\LL	(8a-/L
.	16dd\	.
16AAn/L	16bn\)	8g/J)
16GG/JJ	16ff'\JJ	.
8C/L	(16ee-\LL	8r
.	16cc\)	.
8F/J	(16dd\	8g/
.	16b\JJ)	.
=75	=75	=75
8E-\L	16cc\LL	(8.gg\L
.	16g\J	.
8A-\	[8cc\J	.
.	.	32ff\LL
.	.	32ee-\JJJ
8D\	8cc\L]	(8.ff\L)
8G\J	8bn\J	.
.	.	32ee-\LL
.	.	32dd\JJJ)
=76	=76	=76
8C/L	[4cc\	16ee-\LL
.	.	16ff\
8D/	.	16gg\
.	.	16ee-\JJ
8E-/	16cc\LL]	4cc\
.	16b-\	.
8C/J	16a-\	.
.	16g\JJ	.
=77	=77	=77
8F/L	(16a-\LL	4r
.	16cc\)	.
8E-/	(16gg\	.
.	16ff\JJ)	.
8D/	(8.a-/L	(16ff\LL
.	.	16bb-\)
8BB-/J	.	(16eee-\
.	32g/LL	16ddd\JJ)
.	32f/JJJ)	.
=78	=78	=78
8E-\L	(16g\LL	4r
.	16b-\)	.
8D\J	(16ff\	.
.	16ee-\JJ)	.
8C/L	(8.g/L	(16ee-\LL
.	.	16gg\)
16BBn/L	.	(16ddd\
16C/JJ	32f/LL	16ccc\JJ)
.	32e-/JJJ)	.
=79	=79	=79
8D/L	(16f/LL	4r
.	16a-/)	.
8C/	(16ee-/	.
.	16dd/JJ)	.
8BBn/	(8.f/L	(16dd\LL
.	.	16ff\)
8GG/J	.	(16ccc\
.	32e-/LL	16bbn\JJ)
.	32d/JJJ)	.
=80	=80	=80
8C/L	(16e-/LL	4r
.	16g/)	.
8BB-/	(16dd/	.
.	16cc/JJ)	.
8AA-/	(8.e-/L	16r
.	.	16cc\LL
8GG/J	.	16dd\
.	32d/LL	16ee-\JJ
.	32c/JJJ)	.
=81	=81	=81
8AA-/L	[2cc\	(16f\LL
.	.	16a-\)
8FF/	.	(16ee-\
.	.	16dd\JJ)
8BB-/	.	(16g\LL
.	.	16b-\)
8GG/J	.	(16ff\
.	.	16een\JJ)
=82	=82	=82
8AA-/L	2cc\_	(16ff\LL
.	.	16gg\
8C/	.	16aa-\)
.	.	16ff'\JJ
8AA-/	.	(16cc\LL
.	.	16dd\
8GG/J	.	16ee-\)
.	.	16cc'\JJ
=83	=83	=83
8FF#/L	2cc\_	(16an\LL
.	.	16cc\)
8GG/	.	(16ee-\
.	.	16dd\JJ)
8AAn/	.	(16cc\LL
.	.	16ee-\)
8DD/J	.	(16gg\
.	.	16ff#\JJ)
=84	=84	=84
8GG/L	16cc\LL]	(8gg\L
.	16bn\	.
8Fn/J	(16dd\	8aa-\J)
.	16cc\JJ)	.
8r	(16b-/LL	8r
.	16a-/)	.
8Bn\	(16g/	[8ddd\
.	16f/JJ)	.
=85	=85	=85
8c\L	(16e-/LL	16ddd\LL]
.	16g/)	16eee-\J
8A-\	(16bn/	[8ff\J
.	16cc/JJ)	.
8B-\	(16d/LL	16ff\LL]
.	16f/)	16ddd\J
8G\J	(16an/	[8ee-\J
.	16b-/JJ)	.
=86	=86	=86
8A-\L	(16c/LL	16ee-\LL]
.	16e-/)	16ccc\J
8F\	(16g/	8dd\J
.	16a-/JJ)	.
8D\	16Bn/LL	8r
.	(16a-/	.
8GG\J	16g/	8bbn\
.	16f/JJ)	.
=87	=87	=87
8AA-/L	16e-/LL	8ccc\L
.	16cc/	.
8F/	16a-/	8cc\J
.	16f/JJ	.
8G/	8e-/L	8g/L
8GG/J	16d/L	8bn/J
.	16c/JJ	.
=88	=88	=88
4CC;/	4c;/	4cc;\
*>C	*>C	*>C
4r	8r	4r
.	8ee-\	.
=89	=89	=89
8r	(8.e-/L	4r
8C/L	.	.
.	32f/LL	.
.	32g/JJJ)	.
8D/	(8.f/L	8r
8BB-/J	.	8b-\
.	32g/LL	.
.	32a-/JJJ)	.
=90	=90	=90
8E-\L	8g/	(8.bb-\L
8G\	4ee-\	.
.	.	32aa-\LL
.	.	32gg\JJJ)
8F\	.	(8.aa-\L
8B-\J	8dd\	.
.	.	32gg\LL
.	.	32ff\JJJ)
=91	=91	=91
8E-\L	(16ee-\LL	8gg\
.	16ff\)	.
16e-\L	(16gg\	4b-\
16d\JJ	16ff\JJ)	.
8e-\L	(16aa-\LL	.
.	16gg\)	.
[8A-\J	(16ff\	8cc\
.	16ee-\JJ)	.
=92	=92	=92
16A-\LL]	4dd\	(16b-/LL
16F\J	.	16a-/)
8B-\J	.	(16g/
.	.	16a-/JJ)
8BB-/L	8r	(16f/LL
.	.	16g/
16AA-/L	8ff\	16a-/
16GG/JJ	.	16b-/JJ)
=93	=93	=93
8AA-\L	(8.f/L	4cc\
8A-\	.	.
.	32g/LL	.
.	32a-/JJJ)	.
8B-\	(8.g/L	8r
8c\J	.	8cc\
.	32a-/LL	.
.	32b-/JJJ)	.
=94	=94	=94
8F/L	8a-/	(8.ccc\L
8AA-/	4ff\	.
.	.	32bb-\LL
.	.	32aa-\JJJ)
8GG/	.	(8.bb-\L
8C/J	8een\	.
.	.	32aa-\LL
.	.	32gg\JJJ)
=95	=95	=95
8FF/L	(16ff\LL	8aa-\
.	16gg\)	.
16F/L	(16aa-\	4cc\
16E-/JJ	16gg\JJ	.
8F\L	(16bb-\LL)	.
.	16aa-\)	.
[8B-\J	(16gg\	8dd-\
.	16ff\JJ)	.
=96	=96	=96
16B-\LL]	4een\	(16cc\LL
16G\J	.	16b-\)
8c\J	.	(16a-\
.	.	16b-\JJ)
(16B-\LL	8r	(16g/LL
16A-\	.	16a-/
16G\	16g/LL	16b-/
16F\JJ)	16a-/JJ	16cc/JJ)
=97	=97	=97
(8En\L	(16b-\LL	(16dd-\LL
.	16a-\	16cc\
8E\	16b-\)	16dd-\)
.	16gg'\JJ	16bb-'\JJ
8E\	(16gg\LL	(16bb-\LL
.	16ff\	16aa-\
8E\J)	16gg\)	16bb-\)
.	16b-'\JJ	16dd-'\JJ
=98	=98	=98
(8F\L	(16a-\LL	(16cc\LL
.	16g\	16b-\
8F\	16a-\)	16cc\)
.	16ff'\JJ	16aa-'\JJ
8F\	(16ff\LL	(16aa-\LL
.	16een\	16gg\
8F\J)	16ff\)	16aa-\)
.	16a-'\JJ	16cc'\JJ
=99	=99	=99
(8C/L	(16g\LL	(16b-\LL
.	16f\	16a-\
8C/	16g\)	16b-\)
.	16een'\JJ	(16gg'\JJ
8C/	(16ee\LL	16gg\LL
.	16dd\	16ff\
8C/J)	16ee\)	16gg\)
.	16g'\JJ	16b-'\JJ
=100	=100	=100
(16F\LL	(16f/LL	16a-/LL
16G\	16en/	16g/J
16A-\	16f/	8f/J
16B-\JJ)	16g/JJ)	.
16c\LL	16a-\LL	8r
16d\J	16b-\	.
8e-\J	16cc\	16an/LL
.	16dd\JJ	16b-/JJ
=101	=101	=101
(8F#\L	(16ee-\LL	(16cc\LL
.	16dd\	16b-\
8F#\	16ee-\)	16cc\)
.	(16ccc'\JJ	16aan'\JJ
8F#\	16ccc\LL	(16aa\LL
.	16bb-\	16gg\
8F#\J)	16ccc\)	16aa\)
.	16ee-'\JJ	16cc'\JJ
=102	=102	=102
(8G\L	(16dd\LL	(16b-\LL
.	16cc\	16an\
8G\	16dd\)	16b-\)
.	16bb-'\JJ	16gg'\JJ
8G\	(16bb-\LL	(16gg\LL
.	16aan\	16ff#\
8G\J)	16bb-\)	16gg\)
.	16dd'\JJ	16b-'\JJ
=103	=103	=103
(8D\L	(16cc\LL	(16an\LL
.	16b-\	16g\
8D\	16cc\)	16a\)
.	16aan'\JJ	16ff#'\JJ
8D\	(16aa\LL	(16ff#\LL
.	16gg\	16een\
8D\J)	16aa\)	16ff#\)
.	16cc'\JJ	16a'\JJ
=104	=104	=104
(16G\LL	8b-'\L	4g/
16F#\	.	.
16G\)	(8bb-\	.
16e-'\JJ	.	.
(16e-\LL	8ccc\	8r
16d\	.	.
16e-\)	8bb-\J)	[8ee-\
16G'\JJ	.	.
=105	=105	=105
(16Fn\LL	8an'\L	8ee-\L]
16E-\	.	.
16F\)	(8aan\	8dd\J
16d'\JJ	.	.
(16d\LL	8bb-\	8r
16c\	.	.
16d\)	8aa\J)	[8dd\
16F'\JJ	.	.
=106	=106	=106
(16E-\LL	8g'\L	8dd\L]
16D\	.	.
16E-\)	(8gg\	8cc\J
16c'\JJ	.	.
(16c\LL	8aan\	8r
16B-\	.	.
16c\)	8gg\J)	[8cc\
16E-'\JJ	.	.
=107	=107	=107
8D/L	2ff#\	(16cc\LL]
.	.	16ee-\)
8DD/J	.	(16bb-\
.	.	16aan\JJ)
8r	.	(16an\LL
.	.	16cc\)
8D\	.	(16ee-\
.	.	16dd\JJ)
=108	=108	=108
8E-/L	2gg\	(16b-\LL
.	.	16dd\)
8EE-/J	.	(16aan\
.	.	16gg\JJ)
8r	.	(16g\LL
.	.	16b-\)
8E-\	.	(16dd\
.	.	16cc\JJ)
=109	=109	=109
8FF#/L	2ee-\	(16an\LL
.	.	16cc\)
8AAn/	.	(16gg\
.	.	16ff#\JJ)
8C/	.	(16f#/LL
.	.	16a/)
8AA/J	.	(16cc/
.	.	16b-/JJ)
=110	=110	=110
8BB-/L	[2dd\	(16g\LL
.	.	16b-\)
8GG/	.	(16dd\
.	.	16ee-\JJ)
8C/	.	(16an\LL
.	.	16cc\)
8AAn/J	.	(16gg\
.	.	16ff#\JJ)
=111	=111	=111
8D/L	16dd\LL]	(16b-\LL
.	16gg\	16dd\)
8BB-/	(16ccc\	(16ff#\
.	16bb-\JJ)	16gg\JJ)
8E-/	8r	(16cc\LL
.	.	16ee-\)
8C/J	[8ee-\	(16bb-\
.	.	16aan\JJ)
=112	=112	=112
8F#\L	(16ee-/LL]	[2aan\
.	16cc/)	.
8An\	(16g/	.
.	16f#/JJ)	.
8D\	(16cc/LL	.
.	16an/)	.
8F#\J	(16e-/	.
.	16d/JJ)	.
=113	=113	=113
8BB-/L	(8.dd\L	16aan\LL]
.	.	16ff#\J
8E-/	.	8gg'\J
.	32cc\LL	.
.	32b-\JJJ)	.
8AAn/	(8.cc\L	8r
8F#/J	.	8ddd\
.	32b-\LL	.
.	32an\JJJ)	.
=114	=114	=114
8G/L	16b-'/LL	(8.dd\L
.	(16dd/	.
8GG/	16f#/	.
.	16g/JJ)	32een\LL
.	.	32ffn\JJJ)
8C/	8r	(8.ee\L
8BB-/J	8c/	.
.	.	32ff\LL
.	.	32gg\JJJ)
=115	=115	=115
8AA-/L	(8.cc\L	(16ff\LL
.	.	16cc\)
8D-/	.	(16g\
.	32b-\LL)	16a-\JJ)
.	32a-\JJJ	.
8GG/	(8.b-/L	8r
8En/J	.	8ccc\
.	32a-/LL	.
.	32g/JJJ)	.
=116	=116	=116
8F\L	(16a-\LL	(8.cc\L
.	16cc\)	.
8A-\	(16gg\	.
.	16ff\JJ)	32dd\LL
.	.	32ee-\JJJ)
8BBn\	8r	(8.dd\L
8G\J	8bn\	.
.	.	32ee-\LL
.	.	32ff\JJJ)
=117	=117	=117
(8.C\L	8cc/L	(16ee-\LL
.	.	16cc\)
.	8c/J	(16ee-\
32D\LL)	.	16gg\JJ)
32E-\JJJ	.	.
(8.D\L	4r	(16ff\LL
.	.	16cc\)
.	.	(16ff\
32E-\LL	.	16aa-\JJ)
32F\JJJ)	.	.
=118	=118	=118
(16E-/LL	4c/	4gg\
16D/	.	.
16C/	.	.
16BB-/JJ)	.	.
16C\LL	4e-/	4r
16G\	.	.
16E-\	.	.
16C\JJ	.	.
=119	=119	=119
16BBn/LL	4g/	8r
16GG/	.	.
16BB/	.	4gg\
16D/JJ	.	.
(16C/LL	4a-/	.
16BB/	.	.
16C/)	.	[8ff\
16E-'/JJ	.	.
=120	=120	=120
(16D/LL	4Bn/	(16ff\LL]
16C/	.	16ee-\
16BBn/	.	16dd\
16AAn/JJ)	.	16cc\JJ
16GG/LL	8r	16bn/LL
(16D/	.	16an/J
16E-/	8g/	8g/J)
16BB/JJ)	.	.
=121	=121	=121
(16C\LL	4f#/	8r
16BBn\	.	.
16C\)	.	4ee-\
16A-'\JJ	.	.
(16A-\LL	4fn/	.
16G\	.	.
16A-\)	.	8dd\
16BB-'\JJ	.	.
=122	=122	=122
(16BB-\LL	4en/	8r
16AAn\	.	.
16BB-\)	.	4dd-\
16G'\JJ	.	.
(16G\LL	[4e-/	.
16F\	.	.
16G\)	.	8cc\
16AA-'\JJ	.	.
=123	=123	=123
(16AA-/LL	8e-/L]	4r
16GG/	.	.
16AA-/)	8d/	.
16F'/JJ	.	.
(16F/LL	8d-/	[4aa-\
16E-/	.	.
16F/)	8c/J	.
16AA-'/JJ	.	.
=124	=124	=124
8GG/L	8Bn/L	16aa-\LL]
.	.	(16ff\
8F/	16An/L	16ccc\
.	16G/JJ	16bbn\JJ)
8E-/	8c/L	16r
.	.	(16gg\LL
8D/J	8f/J	16bn\
.	.	16cc\JJ)
=125	=125	=125
16C\LL	4e-/	4r
16G\J	.	.
[8c\J	.	.
16c\LL]	4d/	8r
16A-\J	.	.
[8B-\J	.	8g/
=126	=126	=126
16B-\LL]	4c/	(8.cc/L
16G\J	.	.
[8A-\J	.	.
.	.	32b-/LL
.	.	32a-/JJJ)
16A-\LL]	8r	(8.b-/L
16F\	.	.
16G\	8en/	.
16c\JJ	.	32a-/LL
.	.	32g/JJJ)
=127	=127	=127
16F\LL	(8.f/L	(32a-/LLL
.	.	32b-/JJ
16En\J	.	8.cc/J)
[8F\J	.	.
.	32g/LL	.
.	32a-/JJJ)	.
16F\LL]	(8.g/L	8r
16d\J	.	.
[8E-\J	.	8cc\
.	32an/LL	.
.	32b-/JJJ)	.
=128	=128	=128
16E-\LL]	(32an/LLL	(8.ff\L
.	32g/JJ	.
16c\J	8.f/J)	.
[8D\J	.	.
.	.	32ee-\LL
.	.	32dd\JJJ)
16D\LL]	8r	(8.ee-\L
16BB-\	.	.
16C\	8a/	.
16F\JJ	.	32dd\LL
.	.	32cc\JJJ)
=129	=129	=129
16BB-\LL	(8.b-\L	(32dd\LLL
.	.	32ee-\JJ
16F\J	.	8.ff\J)
[8B-\J	.	.
.	32cc\LL	.
.	32dd\JJJ)	.
16B-\LL]	(8.cc\L	8r
16G\J	.	.
[8A-\J	.	8ff\
.	32dd\LL	.
.	32ee-\JJJ)	.
=130	=130	=130
16A-\LL]	(32dd\LLL	(8.bb-\L
.	32cc\JJ	.
16F\J	8.b-\J)	.
[8G\J	.	.
.	.	32aa-\LL
.	.	32gg\JJJ)
16G\LL]	8r	(8.aa-\L
16E-\	.	.
16F\	8dd\	.
16B-\JJ	.	32gg\LL
.	.	32ff\JJJ)
=131	=131	=131
16E-\LL	(8.ee-\L	(32gg\LLL
.	.	32aa-\JJ
16D\J	.	8.bb-\J)
[8E-\J	.	.
.	32ff\LL	.
.	32gg\JJJ)	.
16E-\LL]	(8.ff\L	8r
16c\J	.	.
[8D-\J	.	8bb-\
.	32gg\LL	.
.	32aa-\JJJ)	.
=132	=132	=132
16D-\LL]	(32gg\LLL	(8.eee-\L
.	32ff\JJ	.
16B-\J	8.ee-\J)	.
[8C\J	.	.
.	.	32ddd-\LL
.	.	32ccc\JJJ)
16C/LL]	4r	(8.ddd-\L
16AA-/	.	.
16BB-/	.	.
16E-/JJ	.	32ccc\LL
.	.	32bb-\JJJ)
=133	=133	=133
16AA-/LL	4r	(16ccc\LL
16E-/JJ	.	16aa-\
4A-\	.	16ddn\
.	.	16ee-\JJ)
.	8r	(16bb-\LL
.	.	16gg\
8G\	8e-/	16cc\
.	.	16dd-\JJ)
=134	=134	=134
8A-\L	(8.ee-\L	16cc\LL
.	.	16ee-\JJ
8c\	.	4aa-\
.	32dd-\LL	.
.	32cc\JJJ)	.
8B-\	(8.dd-\L	.
8E-\J	.	8gg\
.	32cc\LL	.
.	32b-\JJJ)	.
=135	=135	=135
16AA-/LL	(16cc/LL	(8.aa-\L
16C/J	16a-/	.
[8F/J	16dn/	.
.	16e-/JJ)	32gg\LL
.	.	32ff\JJJ)
16F\LL]	(16b-/LL	(8.gg\L
16En\J	16g/	.
8B-\J	16c/	.
.	16d-/JJ)	32ff\LL
.	.	32een\JJJ)
=136	=136	=136
8A-\L	[4c/	16ff'\LL
.	.	(16cc\
8c\	.	16g\
.	.	16a-\JJ)
8A-\	16c/LL]	[4ff\
.	16f/	.
8F\J	(16b-/	.
.	16a-/JJ)	.
=137	=137	=137
8D-\L	[4B-/	16ff\LL]
.	.	(16dd-\
8B-\	.	16an\
.	.	16b-\JJ)
8G-\	16B-/LL]	[4ee-\
.	16e-'/	.
8E-\J	(16g-/	.
.	16f/JJ)	.
=138	=138	=138
(8AAn/L	(16g-\LL	(16ee-\LL]
.	16f\	16ddn\
8AA/	16g-\)	16ee-\)
.	16ee-'\JJ	16ccc'\JJ
8AA/	(16ee-\LL	(16ccc\LL
.	16dd-\	16bb-\
8AA/J)	16ee-\)	16ccc\)
.	16g-'\JJ	16ee-'\JJ
=139	=139	=139
(8BB-/L	(16f/LL	(16dd-\LL
.	16e-/	16cc\
8BB-/	16f/)	16dd-\)
.	16dd-'/JJ	16bb-'\JJ
8BB-/	(16dd-/LL	(16bb-\LL
.	16cc/	16aan\
8BB-/J)	16dd-/)	16bb-\)
.	16f'/JJ	16dd-'\JJ
=140	=140	=140
(8FF/L	(16e-/LL	(16cc\LL
.	16dn/	16b-\
8FF/	16e-/)	16cc\)
.	16cc'/JJ	16aan'\JJ
8FF/	(16cc/LL	(16aa\LL
.	16b-/	16gg\
8FF/J)	16cc/)	16aa\)
.	16e-'/JJ	16cc'\JJ
=141	=141	=141
(16BB-/LL	(16d-/LL	(16b-\LL
16C/	16c/J	16an\
16D-/	8B-/J)	16b-\
16E-/JJ)	.	16cc\JJ)
(16F\LL	8r	16dd-\LL
16G\J	.	16ee-\
8A-\J)	16ddn\LL	16ff\
.	16ee-\JJ	16gg\JJ
=142	=142	=142
(8BBn/L	(16ff\LL	(16aa-\LL
.	16ee-\	16gg\
8BB/	16ff\)	16aa-\)
.	16dd'\JJ	16ff'\JJ
8BB/	(16f\LL	(16ddn\LL
.	16e-\	16cc\
8BB/J)	16f\)	16dd\)
.	16ff'\JJ	16aa-'\JJ
=143	=143	=143
(8C/L	(16ee-\LL	(16gg\LL
.	16dd\	16ff\
8C/	16ee-\)	16gg\)
.	16cc'\JJ	16ee-'\JJ
8C/	(16e-/LL	(16cc\LL
.	16d/	16bn\
8C/J)	16e-/)	16cc\)
.	16ee-'/JJ	16gg'\JJ
=144	=144	=144
(8GG/L	(16dd\LL	(16ff\LL
.	16cc\	16ee-\
8GG/	16dd\)	16ff\)
.	16bn'\JJ	16dd'\JJ
8GG/	(16d/LL	(16bn\LL
.	16c/	16an\
8GG/J)	16d/)	16b\)
.	16dd'/JJ	16ff'\JJ
=145	=145	=145
(16C\LL	4cc\	(16ee-\LL
16BBn\	.	16dd\J)
16C\)	.	8ee-'\J
16A-'\JJ	.	.
(16A-\LL	8r	8f\L
16G\	.	.
16A-\)	[8a-/	8eee-\J
16C'\JJ	.	.
=146	=146	=146
(16BB-\LL	8a-/L]	(16ddd\LL
16AAn\	.	16ccc\J)
16BB-\)	8g/J	8ddd'\J
16G'\JJ	.	.
(16G\LL	8r	8e-\L
16F\	.	.
16G\)	[8gg\	8ddd\J
16BB-'\JJ	.	.
=147	=147	=147
(16AA-/LL	8gg\L]	(16ccc\LL
16GG/	.	16bbn\J)
16AA-/)	8ff\J	8ccc'\J
16F'/JJ	.	.
(16F/LL	8r	8d\L
16E-/	.	.
16F/)	[8f/	8ccc\J
16AA-'/JJ	.	.
=148	=148	=148
8GG/L	(16f/LL]	2bbn\
.	16a-/)	.
8G/J	(16ee-/	.
.	16dd/JJ)	.
8r	(16d/LL	.
.	16f/)	.
8G\	(16a-/	.
.	16g/JJ)	.
=149	=149	=149
8AA-\L	(16e-/LL	2ccc\
.	16g/)	.
8A-\J	(16dd/	.
.	16cc/JJ)	.
8r	(16c/LL	.
.	16e-/)	.
8A-\	(16g/	.
.	16f/JJ)	.
=150	=150	=150
8BBn\L	(16d/LL	2aa-\
.	16f/)	.
8D\	(16cc/	.
.	16bn/JJ)	.
8F\	(16Bn/LL	.
.	16d/)	.
8D\J	(16f/	.
.	16e-/JJ)	.
=151	=151	=151
8E-\L	(16c/LL	[2gg\
.	16e-/)	.
8C\	(16g/	.
.	16a-/JJ)	.
8F\	(16d/LL	.
.	16g/)	.
8D\J	(16cc/	.
.	16b-/JJ)	.
=152	=152	=152
8E-\L	8cc'/L	16gg\LL]
.	.	(16ee-\
8A-\	8e-'/	16bn\
.	.	16cc\JJ)
8F\	8a-'/	(16dd\LL
.	.	16ff\)
8G\J	8d'/J	(16ccc\
.	.	16bbn\JJ)
=153	=153	=153
8C\L	8r	(16ee-\LL
.	.	16cc\)
8F\	8c'/L	(16g\
.	.	16a-\JJ)
8D-\	8f'/	(16b-\LL
.	.	16dd-\)
8E-\J	8B-'/J	(16aa-\
.	.	16gg\JJ)
=154	=154	=154
8AA-/L	8r	(16cc/LL
.	.	16a-/)
8D-/	8A-'/L	(16en/
.	.	16f/JJ)
8BB-/	8d-'/	(16g\LL
.	.	16b-\)
8C/J	8G'/J	(16ff\
.	.	16een\JJ)
=155	=155	=155
4FF/	16r	(8.aa-\L
.	(16ff\LL	.
.	16bn\	.
.	16cc\JJ)	32gg\LL
.	.	32ff\JJJ)
4r	16a-'\LL	(8.ff\L
.	(16dd-\	.
.	16g\	.
.	16a-\JJ)	32ee-\LL
.	.	32dd-\JJJ)
=156	=156	=156
4FF/	(8.a-/L	16dd-'\LL
.	.	(16aa-\
.	.	16een\
.	32g/LL	16ff\JJ)
.	32f/JJJ)	.
4r	(8.f/L	16a-'\LL
.	.	(16ff\
.	.	16cc\
.	32e-/LL	16dd-\JJ)
.	32d-/JJJ)	.
=157	=157	=157
8r	16d-'/LL	[4f/
.	(16dd-/	.
8FF/L	16g/	.
.	16a-/JJ)	.
8FF/	(16d-'/LL	16f\LL]
.	16a-/	(16ff\
8FF/J	16Bn/	16ddn\
.	16c/JJ)	16ee-\JJ)
=158	=158	=158
.	.	(fq/
2FF#/	2c/	2e-/)
=159	=159	=159
8GG\L	4Bn/	4d/
16G\L	.	.
16A-\JJ	.	.
16G\LL	8r	4r
16F\	.	.
16E-\	8g/	.
16D\JJ	.	.
=160	=160	=160
8E-/L	(8.cc\L	2r
8C/	.	.
.	32dd\LL	.
.	32ee-\JJJ)	.
8BBn/	(8.dd\L	.
8GG/J	.	.
.	32ee-\LL	.
.	32ff\JJJ)	.
=161	=161	=161
8C/L	(16ee-\LL	4cc\
.	16dd\	.
8CC/J	16cc\	.
.	16bn\JJ)	.
4r	16cc\LL	4ee-\
.	16gg\	.
.	16ee-\	.
.	16cc\JJ	.
=162	=162	=162
8r	16bn\LL	4gg\
.	16g\	.
4G\	16b\	.
.	16dd\JJ	.
.	(16cc\LL	4aa-\
.	16b\	.
[8F\	16cc\)	.
.	16ee-'\JJ	.
=163	=163	=163
8F\L]	(16dd\LL	4bn\
.	16cc\	.
16G\L	16bn\	.
16F\JJ	16an\JJ)	.
8E-\L	16g\LL	8r
.	(16dd\	.
8C\J	16ee-\	8gg\
.	16b\JJ)	.
=164	=164	=164
8AAn/L	(16cc\LL	4ff#\
.	16bn\	.
[8D/J	16cc\)	.
.	(16aa-'\JJ	.
16D\LL]	16aa-\LL	4ffn\
16E-\	16gg\	.
16F\	16aa-\)	.
16D\JJ	16b-'\JJ	.
=165	=165	=165
8GG/L	(16b-\LL	4een\
.	16an\	.
[8C/J	16b-\)	.
.	(16gg'\JJ	.
16C/LL]	16gg\LL	[4ee-\
16D/	16ff\	.
16E-/	16gg\)	.
16C/JJ	16a-'\JJ	.
=166	=166	=166
8FF/L	(16a-\LL	8ee-\]
.	16g\	.
8F/J	16a-\)	8dd\L
.	16ff'\JJ	.
8r	(16ff\LL	8dd-\
.	16een\	.
[8F\	16ff\)	8cc\J
.	16a-'\JJ	.
=167	=167	=167
16F\LL]	(8a-/L	8bn/L
16D\	.	.
16E-\	8g/J)	16an/L
16F\JJ	.	16g/JJ
16E-/LL	8r	8cc\L
16D/	.	.
16C/	8g/	8ff\J
16BBn/JJ	.	.
=168	=168	=168
16C\LL	(8.gg\L	4ee-\
16G\JJ	.	.
4c\	.	.
.	32ff\LL	.
.	32ee-\JJJ)	.
.	(8.ff\L	4dd\
8Bn\	.	.
.	32ee-\LL	.
.	32dd\JJJ)	.
=169	=169	=169
8c\L	(16ee-\LL	4cc\
.	16ff\	.
8B-\	16gg\)	.
.	16ee-'\JJ	.
8A-\	(16cc\LL	4r
.	16dd\	.
8G\J	16ee-\)	.
.	16cc'\JJ	.
=170	=170	=170
(8.F#\L	(16dd\LL	2r
.	16cc\	.
.	16dd\)	.
32G\LL	16ccc'\JJ	.
32An\JJJ)	.	.
(8.G\L	(16bb-\LL	.
.	16aan\	.
.	16bb-\)	.
32A\LL	16dd'\JJ	.
32B-\JJJ)	.	.
=171	=171	=171
(8.En\L	(16cc\LL	4r
.	16b-\	.
.	16cc\)	.
32F#\LL	16bb-'\JJ	.
32G\JJJ)	.	.
(8.F#\L	(16aan\LL	8r
.	16gg\	.
.	16aa\)	8dd\
32G\LL	16cc'\JJ	.
32An\JJJ)	.	.
=172	=172	=172
8G\L	16b-/LL	(8.gg\L
.	16an/JJ	.
8E-\	4g/	.
.	.	32aan\LL
.	.	(32bb-\JJJ)
8C\	.	8.aa\L
8D\J	8f#/	.
.	.	32bb-\LL
.	.	32ccc\JJJ)
*>F	*>F	*>F
==	==	==
*-	*-	*-
!!!ENC: Craig Stuart Sapp
!!!END: 2005/05/16/
